X: 27
T:Going Down to Cairo
M:C|
L:1/8
R:Reel
S:https://tunearch.org/wiki/Going_Down_to_Cairo
K:G
Bc|d4 d3c|B2d4dc|B2 Bc BAGB|A2D4Bc|
dcBc dedc|B2d4dc|B2 BG ABAF|G4Bc|
d4 [d3g3]c|B2d4dc|B2G2 GBAG|F2D4Bc|
d2d2[D3d3]c|B2d4dc|B2 BG ABAF|G6||
|:((3DEF|G2)G2[F3A3][FA]|[GB][GA][G2B2][G3c3]c|B2 Bc BAGB| A2D4((3DEF|
G2)G2[F3A3][FA]|[GB][GA][G2B2][G3c3]c|BAG2 AGFA|G6:|]

